X:34
T:JC Muir 
C:Joe Buchanan's Scottish Tome - Page 061.1
I:061 1
R:Hornpipe
Z:Carl Allison
L:1/8
M:4/4
K:F
| "F"Ac"C7"AG "F"AF"F7"Ac | "Bb"d<f F>G "F"A2 c"F7"d/e/ | "Bb"f>gfd "F"cAAf | "F"dc"Dm"AF "Gm"G2 "C7"FG |
| "F"Ac"A7"AG "Dm"AF"F7"Ac | "Bb"d<f F>G "F"A2 "F7"GF | "Bb"B>cdf "F"cf"Dm"cA | "Gm"G2 "C7"F2 "F"F2 :|
"C7"FA |"F" c>dcA GFFG |"F" A<c"C7"AG "F"A2 "F7"AB/2c/2 |"Bb" d>edc "Bb"df"F"fc |"Bb" d<f"F"cA "Eb"G2 "C7"F>G |
|"F"Ac"A7"AG "Dm"AF"F7"Ac | "Bb"d<f F>G "F"A2 "F7"GF |"Bb" B>cdf "F"cfcA | "Gm"G2 "C7"F2 "F"F2 :|

